X: 557
T: Polska från Transtrand efter Omas Ludvig
S: efter Omas Ludvig Larsson
S: Känd genom Hedningarna
O: Dalarna, Transtrand
R: Polska
D: Hedningarna
Z: Håkan Lidén, 2008-09-28
M: 9/8
L: 1/4
K: Ddor
A a/-a b/ a g/ | e/f/ g a g e/ | ^c/d/ e f d e/ | ^c/B/c/ A3 |
A a/-a b/ a g/ | e/f/ g a g e/ | ^c/d/ e f d e/ | ^c/B/c/ d3 :|
|: A ^c e d B/ | B G/ B/ d ^c3/2 | A ^c e d B/ | B/G/ B A A3/2 | 
A ^c e d B/ | B G/ B/ d ^c3/2 | A ^c/ e/ f d e/ | ^c/B/c/ d3 :| 
(:musicend:)

Eller i 3-takt:

(:music:)
